src/16/mimetypes/text-x-sass.svg

<?xml version="1.0" encoding="UTF-8" standalone="no"?>
<svg
   xmlns:dc="http://purl.org/dc/elements/1.1/"
   xmlns:cc="http://creativecommons.org/ns#"
   xmlns:rdf="http://www.w3.org/1999/02/22-rdf-syntax-ns#"
   xmlns:svg="http://www.w3.org/2000/svg"
   xmlns="http://www.w3.org/2000/svg"
   xmlns:sodipodi="http://sodipodi.sourceforge.net/DTD/sodipodi-0.dtd"
   xmlns:inkscape="http://www.inkscape.org/namespaces/inkscape"
   width="16"
   height="16"
   viewBox="0 0 16 16"
   version="1.1"
   id="svg4"
   sodipodi:docname="text-x-sass.svg"
   inkscape:version="0.92.4 (5da689c313, 2019-01-14)">
  <metadata
     id="metadata10">
    <rdf:RDF>
      <cc:Work
         rdf:about="">
        <dc:format>image/svg+xml</dc:format>
        <dc:type
           rdf:resource="http://purl.org/dc/dcmitype/StillImage" />
        <dc:title></dc:title>
      </cc:Work>
    </rdf:RDF>
  </metadata>
  <defs
     id="defs8" />
  <sodipodi:namedview
     pagecolor="#ffffff"
     bordercolor="#666666"
     borderopacity="1"
     objecttolerance="10"
     gridtolerance="10"
     guidetolerance="10"
     inkscape:pageopacity="0"
     inkscape:pageshadow="2"
     inkscape:window-width="717"
     inkscape:window-height="480"
     id="namedview6"
     showgrid="true"
     inkscape:zoom="5.2149125"
     inkscape:cx="-11.042854"
     inkscape:cy="18.181182"
     inkscape:window-x="775"
     inkscape:window-y="295"
     inkscape:window-maximized="0"
     inkscape:current-layer="svg4">
    <inkscape:grid
       type="xygrid"
       id="grid823" />
  </sodipodi:namedview>
  <path
     d="m 13.051892,8.7390697 c -0.489499,0.00607 -0.913365,0.114695 -1.268866,0.2814257 -0.131262,-0.2474838 -0.262523,-0.46382 -0.2844,-0.6253893 -0.02462,-0.1876174 -0.05469,-0.3022518 -0.02462,-0.5264197 0.03009,-0.2240478 0.166811,-0.542024 0.166811,-0.5680721 -0.0027,-0.023683 -0.03009,-0.1381322 -0.311746,-0.1407432 -0.281667,-0.00607 -0.525048,0.05222 -0.552394,0.1224674 -0.02735,0.070432 -0.08204,0.2320009 -0.11759,0.3987922 C 10.609867,7.9260642 10.095756,8.7937771 9.803151,9.2498258 9.707441,9.0725917 9.625407,8.9162444 9.608999,8.7912267 9.584379,8.6035486 9.554309,8.4889154 9.584379,8.2648058 9.614469,8.0406997 9.751191,7.7228437 9.751191,7.6967349 9.748491,7.6730519 9.721111,7.5586634 9.439443,7.5560524 9.157778,7.5499824 8.9143961,7.6082724 8.88705,7.6785197 8.859703,7.7488347 8.829627,7.9156214 8.7694609,8.0771895 8.7120379,8.2387588 8.0283783,9.6875976 7.8506277,10.065442 c -0.090243,0.1929 -0.169546,0.346636 -0.2269736,0.450827 -0.057423,0.104195 -0.00268,0.0079 -0.0082,0.01822 -0.049222,0.08859 -0.076568,0.138072 -0.076568,0.138072 v 0.0061 c -0.03829,0.06515 -0.079304,0.127689 -0.098447,0.127689 -0.013668,0 -0.041008,-0.174562 0.00548,-0.414336 0.1011814,-0.5028611 0.3472965,-1.2872693 0.3445618,-1.3158678 0,-0.013358 0.046492,-0.151186 -0.1586066,-0.2215581 -0.1996286,-0.070373 -0.2707277,0.046748 -0.2871357,0.046748 -0.016409,0 -0.030083,0.041895 -0.030083,0.041895 0,0 0.2215043,-0.8834372 -0.4238661,-0.8834372 -0.4047249,0 -0.9625882,0.4195566 -1.238784,0.8025627 C 5.4769965,8.9535835 5.105089,9.146423 4.7113024,9.3523163 4.5608985,9.4304596 4.4050247,9.5138845 4.2573548,9.589418 L 4.2272723,9.557848 C 3.445171,8.7630506 1.9985553,8.2002612 2.0587168,7.1318163 2.0805919,6.7435287 2.2227935,5.7194694 4.8370939,4.479134 6.9783049,3.4627861 8.692913,3.7416611 8.9909861,4.3617678 9.414854,5.2477558 8.0748882,6.8946552 5.8489048,7.1318163 5.0011718,7.2230146 4.5554276,6.9102593 4.4433079,6.7930747 4.32572,6.6705467 4.3093115,6.6653854 4.2655567,6.6888214 c -0.071099,0.036423 -0.027353,0.1459033 0,0.2110534 0.065632,0.1641197 0.3390938,0.4560488 0.8039807,0.602014 C 5.4769961,7.6295162 6.4723984,7.6998872 7.6756335,7.2568935 9.023802,6.7591935 10.076631,5.3781159 9.76762,4.2236962 9.453138,3.0483896 7.4076398,2.6627732 5.4742609,3.316882 4.3229859,3.7077198 3.0759976,4.3174438 2.1790406,5.1175172 1.112538,6.0659839 0.9429915,6.8946552 1.0140911,7.2386795 1.2629414,8.4660208 3.0377117,9.2660332 3.7487135,9.8575424 3.713171,9.8757657 3.680348,9.8939774 3.6502678,9.9097624 3.2947666,10.076493 1.9411285,10.751429 1.6020342,11.465465 c -0.3828456,0.807784 0.060163,1.38891 0.3555017,1.467054 0.9133645,0.242384 1.8486058,-0.192839 2.3545103,-0.909426 0.5031705,-0.716587 0.4430089,-1.646898 0.2105667,-2.0716771 l -0.0082,-0.015785 0.278931,-0.1563473 c 0.1804853,-0.10164 0.3582358,-0.1954505 0.5141097,-0.2762655 -0.087508,0.2267195 -0.150405,0.495152 -0.1832205,0.8859889 -0.03829,0.45866 0.1586091,1.052779 0.4183975,1.287332 0.1148548,0.101581 0.2515855,0.104194 0.3363596,0.104194 0.3008079,0 0.4375391,-0.237101 0.5879423,-0.521137 0.1859552,-0.346574 0.3500325,-0.747856 0.3500325,-0.747856 0,0 -0.2050967,1.086598 0.3555021,1.086598 0.2050955,0 0.4101929,-0.252766 0.50317,-0.383066 v 0.0061 c 0,0 0.00548,-0.0079 0.016409,-0.02611 0.021875,-0.03097 0.032813,-0.04978 0.032813,-0.04978 v -0.0061 C 7.8068961,11.00366 7.9901152,10.693576 8.2635775,10.18021 8.6163435,9.5183283 8.9554372,8.6896579 8.9554372,8.6896579 c 0,0 0.032824,0.2032823 0.1339968,0.5368031 0.06016,0.1980591 0.191423,0.4143358 0.292605,0.6254499 -0.08204,0.10941 -0.131262,0.1719511 -0.131262,0.1719511 l 0.0027,0.0061 c -0.06563,0.0833 -0.139465,0.171952 -0.216034,0.260539 -0.2789316,0.317917 -0.612556,0.680096 -0.6563096,0.784348 -0.051957,0.122467 -0.041008,0.213664 0.060163,0.286646 0.073835,0.05222 0.2050968,0.06253 0.3445626,0.05222 0.251585,-0.01579 0.426601,-0.07566 0.51411,-0.112081 0.136731,-0.04676 0.292603,-0.117246 0.443007,-0.221498 0.273464,-0.192838 0.440274,-0.466431 0.423868,-0.831221 -0.0082,-0.200671 -0.07657,-0.3987919 -0.161344,-0.5863476 0.02461,-0.03339 0.04922,-0.067818 0.07384,-0.1042533 0.432069,-0.6019521 0.765694,-1.2638323 0.765694,-1.2638323 0,0 0.03282,0.2032811 0.133996,0.5368019 0.05196,0.1694011 0.155873,0.3544076 0.248851,0.5368019 -0.404725,0.3153056 -0.659044,0.6801574 -0.746552,0.9199304 -0.161343,0.442933 -0.03555,0.643605 0.202362,0.690478 0.106645,0.02124 0.259788,-0.02611 0.374643,-0.07299 0.1422,-0.04433 0.314483,-0.119855 0.473089,-0.231879 0.273463,-0.192839 0.535987,-0.461271 0.522313,-0.8235108 -0.0082,-0.1667306 -0.05469,-0.3309098 -0.117588,-0.4872571 0.344563,-0.1354605 0.790307,-0.2136644 1.356373,-0.1485143 1.216907,0.13552 1.457555,0.8599402 1.411066,1.1621912 -0.04649,0.302313 -0.300809,0.469103 -0.385582,0.521199 -0.08477,0.04919 -0.112117,0.0677 -0.103915,0.104195 0.01097,0.05465 0.04922,0.05222 0.123058,0.0419 0.101185,-0.01579 0.639902,-0.247545 0.661778,-0.805173 0.03282,-0.7166479 -0.68092,-1.4983856 -1.947051,-1.4906133 z M 3.6666652,11.754055 c -0.40199,0.419497 -0.9680567,0.578515 -1.2087035,0.442994 -0.2597895,-0.143294 -0.1586091,-0.760911 0.3363585,-1.206576 0.3008072,-0.270982 0.6918597,-0.521078 0.948914,-0.674815 0.057423,-0.034 0.1449353,-0.08343 0.2488509,-0.143354 0.016409,-0.01038 0.027353,-0.01579 0.027353,-0.01579 0.019145,-0.01027 0.041008,-0.02367 0.062896,-0.03642 0.1832193,0.635773 0.00821,1.193401 -0.4156629,1.633844 z M 6.6063849,9.8491681 C 6.4669192,10.174915 6.1715794,11.01142 5.9938289,10.964485 5.8406903,10.925017 5.7477132,10.292162 5.9637464,9.6667119 6.0731307,9.3514052 6.3055743,8.9761714 6.4423054,8.8302681 6.6638102,8.5957774 6.9044578,8.5175734 6.9646189,8.6139926 7.035719,8.7390697 6.693891,9.6458846 6.6063833,9.8491681 Z M 9.031995,10.954041 c -0.060163,0.02854 -0.1148535,0.04979 -0.1394657,0.034 -0.019145,-0.01097 0.024617,-0.04978 0.024617,-0.04978 0,0 0.3035417,-0.310024 0.4238657,-0.453377 0.06837,-0.08343 0.150405,-0.179784 0.237912,-0.289258 v 0.03097 c 0,0.375234 -0.377378,0.62539 -0.546925,0.727031 z m 1.870483,-0.406503 c -0.04375,-0.03097 -0.03828,-0.127688 0.109387,-0.42994 0.05742,-0.1198549 0.188687,-0.3205262 0.415662,-0.5108154 0.02735,0.078202 0.04375,0.1537375 0.04101,0.2241692 -0.0027,0.4690422 -0.352767,0.6436652 -0.566069,0.7165862 z"
     id="path4"
     style="opacity:1;fill:#ee527f;fill-opacity:1;stroke-width:0.85714358"
     inkscape:connector-curvature="0" />
</svg>

<svg xmlns="http://www.w3.org/2000/svg" width="16" height="16"><path d="M13.052 8.74c-.49.005-.913.114-1.269.28-.131-.247-.262-.463-.284-.625-.025-.188-.055-.302-.025-.526.03-.224.167-.542.167-.568-.003-.024-.03-.139-.312-.141-.282-.006-.525.052-.552.122a2.89 2.89 0 0 0-.118.4c-.05.244-.563 1.112-.856 1.568-.096-.177-.178-.334-.194-.459-.025-.187-.055-.302-.025-.526.03-.224.167-.542.167-.568-.003-.024-.03-.138-.312-.14-.281-.007-.525.051-.552.122-.027.07-.057.237-.118.398-.057.162-.74 1.61-.918 1.988-.09.193-.17.347-.227.451-.058.104-.003.008-.009.018l-.076.139v.006c-.038.065-.08.127-.099.127-.013 0-.04-.174.006-.414.101-.503.347-1.287.344-1.316 0-.013.047-.151-.158-.221-.2-.07-.27.046-.287.046-.017 0-.03.042-.03.042s.221-.883-.424-.883c-.405 0-.963.42-1.239.802-.175.092-.547.284-.94.49-.151.078-.307.162-.455.237l-.03-.031C3.445 8.763 2 8.2 2.06 7.132c.022-.388.164-1.413 2.778-2.653 2.141-1.016 3.856-.737 4.154-.117.424.886-.916 2.533-3.142 2.77-.848.091-1.294-.222-1.406-.339-.117-.122-.134-.128-.177-.104-.072.036-.028.146 0 .21.065.165.339.457.804.603.407.128 1.402.198 2.606-.245 1.348-.498 2.4-1.879 2.092-3.033-.315-1.176-2.36-1.561-4.294-.907-1.151.39-2.398 1-3.295 1.8C1.113 6.067.943 6.896 1.014 7.24c.249 1.227 2.024 2.027 2.735 2.619l-.099.052c-.355.166-1.709.841-2.048 1.555-.383.808.06 1.39.356 1.468.913.242 1.848-.193 2.354-.91.503-.716.443-1.647.21-2.072l-.008-.015.28-.157c.18-.101.358-.195.513-.276-.087.227-.15.495-.183.886-.038.459.159 1.053.419 1.287a.479.479 0 0 0 .336.105c.3 0 .438-.238.588-.522a9.23 9.23 0 0 0 .35-.747s-.205 1.086.355 1.086c.206 0 .41-.253.504-.383v.006l.016-.026a.751.751 0 0 0 .033-.05v-.006c.082-.135.265-.445.539-.959.352-.662.691-1.49.691-1.49s.033.203.134.536c.06.199.192.415.293.626-.082.11-.131.172-.131.172l.002.006c-.065.083-.139.172-.216.26-.278.318-.612.68-.656.785-.052.122-.04.214.06.286.074.053.205.063.345.053.251-.016.426-.076.514-.112.137-.047.293-.118.443-.222.273-.193.44-.466.424-.831a1.609 1.609 0 0 0-.161-.586c.024-.034.049-.068.073-.105.432-.602.766-1.264.766-1.264s.033.204.134.537c.052.17.156.355.249.537-.405.315-.66.68-.747.92-.161.443-.035.644.203.69.106.022.26-.026.374-.072a1.73 1.73 0 0 0 .473-.232c.274-.193.536-.462.523-.824a1.516 1.516 0 0 0-.118-.487c.345-.136.79-.214 1.357-.149 1.216.136 1.457.86 1.41 1.163-.046.302-.3.469-.385.52-.085.05-.112.068-.104.105.011.055.05.052.123.042.101-.016.64-.248.662-.805.033-.717-.681-1.499-1.947-1.491zm-9.385 3.014c-.402.42-.968.579-1.209.443-.26-.143-.159-.76.336-1.207.301-.27.692-.52.95-.674l.248-.144.027-.015c.02-.01.041-.024.063-.037.184.636.009 1.193-.415 1.634zm2.94-1.905c-.14.326-.435 1.162-.613 1.115-.153-.039-.246-.672-.03-1.297.11-.316.342-.69.478-.837.222-.234.462-.312.523-.216.07.125-.271 1.032-.359 1.235zm2.425 1.105c-.06.029-.115.05-.14.034-.019-.01.025-.05.025-.05s.304-.31.424-.453c.068-.084.15-.18.238-.29v.032c0 .375-.377.625-.547.727zm1.87-.406c-.043-.031-.038-.128.11-.43.057-.12.189-.32.416-.511a.618.618 0 0 1 .04.224c-.002.469-.352.644-.566.717z" fill="#ee527f" stroke-width=".857"/></svg>
